packages/icons/src/components/Icon/assets/default-outline/ticket.svg

<svg width="20" height="20" viewBox="0 0 20 20" fill="none" xmlns="http://www.w3.org/2000/svg">
<path d="M12.5957 13.9038C12.5958 13.4898 12.9318 13.1541 13.3457 13.1538C13.7598 13.1538 14.0956 13.4897 14.0957 13.9038V14.269H16.4131C16.4608 14.269 16.4999 14.2308 16.5 14.1831V12.3228C15.8216 11.7772 15.3849 10.9408 15.3848 10.0005C15.3848 9.05998 15.8215 8.22284 16.5 7.67725V5.81787C16.5 5.77008 16.4609 5.73096 16.4131 5.73096H14.0957V6.09619C14.0957 6.5104 13.7599 6.84619 13.3457 6.84619C12.9317 6.84595 12.5957 6.51025 12.5957 6.09619V5.73096H3.58691C3.53912 5.73096 3.5 5.77008 3.5 5.81787V7.67725C4.17853 8.22284 4.61523 9.05998 4.61523 10.0005C4.61514 10.9408 4.17836 11.7772 3.5 12.3228V14.1831C3.50012 14.2308 3.5392 14.269 3.58691 14.269H12.5957V13.9038ZM8.88477 11.481C9.29891 11.481 9.63477 11.8168 9.63477 12.231C9.63477 12.6451 9.29891 12.9809 8.88477 12.981H6.6543C6.24008 12.981 5.9043 12.6452 5.9043 12.231C5.9043 11.8167 6.24008 11.481 6.6543 11.481H8.88477ZM12.5957 11.6733V11.1157C12.5957 10.7017 12.9317 10.366 13.3457 10.3657C13.7599 10.3657 14.0957 10.7015 14.0957 11.1157V11.6733C14.0957 12.0875 13.7599 12.4233 13.3457 12.4233C12.9317 12.4231 12.5957 12.0874 12.5957 11.6733ZM10.5576 9.80811C10.9718 9.80811 11.3076 10.1439 11.3076 10.5581C11.3075 10.9722 10.9718 11.3081 10.5576 11.3081H6.6543C6.24016 11.3081 5.90442 10.9722 5.9043 10.5581C5.9043 10.1439 6.24008 9.80811 6.6543 9.80811H10.5576ZM12.5957 8.88525V8.32666C12.5959 7.9128 12.9318 7.5769 13.3457 7.57666C13.7598 7.57666 14.0955 7.91265 14.0957 8.32666V8.88525C14.0955 9.29926 13.7598 9.63525 13.3457 9.63525C12.9318 9.63501 12.5959 9.29911 12.5957 8.88525ZM18 8.06787C18 8.3355 17.8576 8.5832 17.626 8.71729C17.1814 8.97445 16.8848 9.45334 16.8848 10.0005C16.8849 10.5475 17.1815 11.0266 17.626 11.2837C17.8573 11.4177 17.9999 11.6647 18 11.9321V14.1831C17.9999 15.0592 17.2892 15.769 16.4131 15.769H3.58691C2.71077 15.769 2.00012 15.0592 2 14.1831V11.9321C2.00014 11.6647 2.14268 11.4177 2.37402 11.2837C2.8185 11.0266 3.11513 10.5475 3.11523 10.0005C3.11523 9.45334 2.81858 8.97445 2.37402 8.71729C2.14242 8.5832 2.00001 8.3355 2 8.06787V5.81787C2 4.94165 2.71069 4.23096 3.58691 4.23096H16.4131C17.2893 4.23096 18 4.94165 18 5.81787V8.06787Z"/>
</svg>

<svg xmlns="http://www.w3.org/2000/svg" width="20" height="20" fill="none" viewBox="0 0 20 20">
    <path d="M12.596 13.904a.75.75 0 0 1 1.5 0v.365h2.317a.086.086 0 0 0 .087-.086v-1.86a2.974 2.974 0 0 1 0-4.646v-1.86a.087.087 0 0 0-.087-.086h-2.317v.365a.75.75 0 0 1-1.5 0v-.365h-9.01a.087.087 0 0 0-.086.087v1.86a2.975 2.975 0 0 1 0 4.645v1.86c0 .048.04.086.087.086h9.009zM8.885 11.48a.75.75 0 0 1 0 1.5h-2.23a.75.75 0 0 1 0-1.5zm3.71.192v-.557a.75.75 0 0 1 1.5 0v.557a.75.75 0 0 1-1.5 0m-2.037-1.865a.75.75 0 0 1 0 1.5H6.654a.75.75 0 0 1 0-1.5zm2.038-.923v-.558a.75.75 0 0 1 1.5 0v.558a.75.75 0 0 1-1.5 0M18 8.068a.75.75 0 0 1-.374.65 1.48 1.48 0 0 0 0 2.566.75.75 0 0 1 .374.648v2.251c0 .876-.71 1.586-1.587 1.586H3.587c-.876 0-1.587-.71-1.587-1.586v-2.25a.75.75 0 0 1 .374-.65 1.48 1.48 0 0 0 0-2.566.75.75 0 0 1-.374-.65v-2.25c0-.875.71-1.586 1.587-1.586h12.826c.876 0 1.587.71 1.587 1.587z"/>
</svg>
